svg/u303d.svg

<svg viewBox="0 0 128 128" xmlns="http://www.w3.org/2000/svg">
  <path d="M87.6,22.7c0-1.1,0-2.1,0-3c-0.1-3.8-0.7-8.3-5.5-10.2c-1-0.3-2-0.5-2.9-0.5c-1.4,0-5,0-5,0 s-2.4,3.3-4,5L58,27.4c-1.1,1.2-3,0.7-3.4-0.8l-3.9-14.7c-1.2-4.2-2.9-6.3-6-7.5C44.1,4.1,43.3,4,42.5,4s-4.7,0-4.7,0 s-1.7,2-3.4,3.7L8.3,31.2c-1.5,1.4-1.7,3.7-0.4,5.3l4.5,10.2c4-0.1,4,0,5.1,0s2.2-0.3,3.1-1.1L34,33.9c1.1-1.1,3-0.5,3.3,1l4.2,17.6 c0.5,2.2,4.1,7.3,4.1,7.3s4.3,0,5.1,0c2.7,0,5.4-1.2,7.2-3.3L67,45.8c0.6-0.7,1.6-0.3,1.8,0.5c2.4,20.2,36.9,77.6,36.9,77.6s4,0,5,0 c1.1,0,2.2-0.4,3-1.2L126,110c1.5-1.6,1.5-4.1-0.1-5.7C95.7,75.5,87.5,36,87.6,22.7z" fill="#F2A600"/>
  <path d="M82.6,22.7c0-1.1,0-2.1,0-3c-0.1-3.8-0.7-8.3-5.5-10.2c-3.8-1.5-7.7,0-11.8,4.5L53.1,27.4 c-1.1,1.2-3,0.7-3.4-0.8l-3.9-14.7c-1.2-4.2-2.9-6.3-6-7.5c-3-1.1-7.3,0.3-10.4,3.3L3.3,31.2c-1.5,1.4-1.7,3.7-0.4,5.3l6.7,8.7 c1.5,1.9,4.2,2.1,5.9,0.4L29,33.9c1.1-1.1,3-0.5,3.3,1l4.2,17.6c0.8,3.5,3.5,6.2,7,7c3.4,0.8,7.1-0.4,9.4-3L62,45.8 c0.6-0.7,1.6-0.3,1.8,0.5c2.5,20.6,17.4,54.9,39.2,76.5c1.6,1.6,4.1,1.5,5.7-0.1L121,110c1.5-1.6,1.5-4.1-0.1-5.7 C90.8,75.5,82.5,36,82.6,22.7z" fill="#FFCC32"/>
  <circle cx="102.4" cy="95" r="3.3" fill="#FFF170"/>
  <path d="M96,90.6c-1,0-2-0.5-2.6-1.4c-1.3-2.1-6.58-11.69-10.07-20.23c-1.44-3.68-4.27-10.35-6.39-18.63 c-1.57-6.13-2.67-14.25-2.98-16.87c-0.63-5.31-0.74-10.69-1.23-10.8c-1.6-0.5-2.53,3.03-4.03,3.43c-2.4,0.7-4.5-1.9-3.5-4.2 c1.1-2.3,3.74-4.41,5.34-5.59c1.6-1.18,3.2-1.49,4.7-0.99c2.9,1,2.99,4.37,3.34,8.56c0.33,3.87,1.35,14.84,3.6,24.6 c1.56,6.79,4.89,14.63,6.61,18.41c2.41,5.29,8.4,17.2,9.7,19.3c0.9,1.4,0.4,3.3-1,4.1C97.1,90.5,96.5,90.6,96,90.6z" fill="#FFF170"/>
  <path d="M45.52,24.61c-1.43-7.05-2.05-9-3.01-12.44c-0.75-2.72-3.77-4.57-6.96-3.25 c-2.25,0.92-5.82,4.29-7.12,5.39c-1.3,1.2-3.52,3.62-1.91,5.35c1.61,1.73,4.19,0.01,5.02-0.6c0.82-0.6,1.91-1.67,3.39-2.79 c1.01-0.77,2.24-0.17,2.54,1.03c1.24,6.19,1.95,8.25,2.25,9.46c0.36,1.43,1.31,4.6,4.24,3.7S45.82,26.41,45.52,24.61z" fill="#FFF170"/>
</svg>

<svg viewBox="0 0 128 128" xmlns="http://www.w3.org/2000/svg">
  <defs/>
  <path d="M87.6,22.7 C87.6,21.6 87.6,20.6 87.6,19.7 C87.5,15.9 86.9,11.4 82.1,9.5 C81.1,9.2 80.1,9 79.2,9 C77.8,9 74.2,9 74.2,9 C74.2,9 71.8,12.3 70.2,14 L58,27.4 C56.9,28.6 55,28.1 54.6,26.6 L50.7,11.9 C49.5,7.7 47.8,5.6 44.7,4.4 C44.1,4.1 43.3,4 42.5,4 C41.7,4 37.8,4 37.8,4 C37.8,4 36.1,6 34.4,7.7 L8.3,31.2 C6.8,32.6 6.6,34.9 7.9,36.5 L12.4,46.7 C16.4,46.6 16.4,46.7 17.5,46.7 C18.6,46.7 19.7,46.4 20.6,45.6 L34,33.9 C35.1,32.8 37,33.4 37.3,34.9 L41.5,52.5 C42,54.7 45.6,59.8 45.6,59.8 C45.6,59.8 49.9,59.8 50.7,59.8 C53.4,59.8 56.1,58.6 57.9,56.5 L67,45.8 C67.6,45.1 68.6,45.5 68.8,46.3 C71.2,66.5 105.7,123.9 105.7,123.9 C105.7,123.9 109.7,123.9 110.7,123.9 C111.8,123.9 112.9,123.5 113.7,122.7 L126,110 C127.5,108.4 127.5,105.9 125.9,104.3 C95.7,75.5 87.5,36 87.6,22.7 Z" fill="#F2A600"/>
  <path d="M82.6,22.7 C82.6,21.6 82.6,20.6 82.6,19.7 C82.5,15.9 81.9,11.4 77.1,9.5 C73.3,8 69.4,9.5 65.3,14 L53.1,27.4 C52,28.6 50.1,28.1 49.7,26.6 L45.8,11.9 C44.6,7.7 42.9,5.6 39.8,4.4 C36.8,3.3 32.5,4.7 29.4,7.7 L3.3,31.2 C1.8,32.6 1.6,34.9 2.9,36.5 L9.6,45.2 C11.1,47.1 13.8,47.3 15.5,45.6 L29,33.9 C30.1,32.8 32,33.4 32.3,34.9 L36.5,52.5 C37.3,56 40,58.7 43.5,59.5 C46.9,60.3 50.6,59.1 52.9,56.5 L62,45.8 C62.6,45.1 63.6,45.5 63.8,46.3 C66.3,66.9 81.2,101.2 103,122.8 C104.6,124.4 107.1,124.3 108.7,122.7 L121,110 C122.5,108.4 122.5,105.9 120.9,104.3 C90.8,75.5 82.5,36 82.6,22.7 Z" fill="#FFCC32"/>
  <path d="M105.7,95 A3.3 3.3 0 1 1 99.1,95 A3.3 3.3 0 1 1 105.7,95 Z" fill="#FFF170"/>
  <path d="M96,90.6 C95,90.6 94,90.1 93.4,89.2 C92.1,87.1 86.82,77.51 83.33,68.97 C81.89,65.29 79.06,58.62 76.94,50.34 C75.37,44.21 74.27,36.09 73.96,33.47 C73.33,28.16 73.22,22.78 72.73,22.67 C71.13,22.17 70.2,25.7 68.7,26.1 C66.3,26.8 64.2,24.2 65.2,21.9 C66.3,19.6 68.94,17.49 70.54,16.31 C72.14,15.13 73.74,14.82 75.24,15.32 C78.14,16.32 78.23,19.69 78.58,23.88 C78.91,27.75 79.93,38.72 82.18,48.48 C83.74,55.27 87.07,63.11 88.79,66.89 C91.2,72.18 97.19,84.09 98.49,86.19 C99.39,87.59 98.89,89.49 97.49,90.29 C97.1,90.5 96.5,90.6 96,90.6 Z" fill="#FFF170"/>
  <path d="M45.52,24.61 C44.09,17.56 43.47,15.61 42.51,12.17 C41.76,9.45 38.74,7.6 35.55,8.92 C33.3,9.84 29.73,13.21 28.43,14.31 C27.13,15.51 24.91,17.93 26.52,19.66 C28.13,21.39 30.71,19.67 31.54,19.06 C32.36,18.46 33.45,17.39 34.93,16.27 C35.94,15.5 37.17,16.1 37.47,17.3 C38.71,23.49 39.42,25.55 39.72,26.76 C40.08,28.19 41.03,31.36 43.96,30.46 C46.89,29.56 45.82,26.41 45.52,24.61 Z" fill="#FFF170"/>
</svg>
